X:1
T:Steppin' Out
T:Steppin' Out
T:Chris Perry
C:Chris Perry
L:1/8
M:4/4
K:D
V:1 treble 
V:1
 de |"D" f2 fd"A" e2 de |"D" f2 fd edBA |"D" f2 fd"A" e2 de |"D" fdef a4 |"G" g2 b2"D" a2 f2 | %6
"A" edef edBA |"D" d2 dA BAFD |"A" EF"D" E2 D2 :| DB, |"D" A,2 A2 F2- FD |"A" EDEF EDB,D | %12
"D" A,2 A2 F2- FD |"A" EDEF"D" A4 |"G" G2 B2"D" A2 F2 |"A" EDEF EDB,A |"D" d2 dA BAFD | %17
"A" EF E2"D" D2 :| %18

